apps/scalable/airmirror.svg

<svg xmlns="http://www.w3.org/2000/svg" style="isolation:isolate" width="256" height="256" viewBox="0 0 256 256">
 <defs>
  <filter id="1CGxcJJewXaCIapE0h1yMdYi1RxCDmp5" width="400%" height="400%" x="-200%" y="-200%" color-interpolation-filters="sRGB" filterUnits="objectBoundingBox">
   <feGaussianBlur xmlns="http://www.w3.org/2000/svg" in="SourceGraphic" stdDeviation="4.294"/>
   <feOffset xmlns="http://www.w3.org/2000/svg" dx="0" dy="4" result="pf_100_offsetBlur"/>
   <feFlood xmlns="http://www.w3.org/2000/svg" flood-opacity=".4"/>
   <feComposite xmlns="http://www.w3.org/2000/svg" in2="pf_100_offsetBlur" operator="in" result="pf_100_dropShadow"/>
   <feBlend xmlns="http://www.w3.org/2000/svg" in="SourceGraphic" in2="pf_100_dropShadow" mode="normal"/>
  </filter>
 </defs>
 <g filter="url(#1CGxcJJewXaCIapE0h1yMdYi1RxCDmp5)">
  <linearGradient id="_lgradient_5" x1=".25" x2=".75" y1=".036" y2=".902" gradientTransform="matrix(244.648309,0,0,228.338396,5.68,11.95)" gradientUnits="userSpaceOnUse">
   <stop offset="1.304%" style="stop-color:rgb(18,255,247)"/>
   <stop offset="48.272%" style="stop-color:rgb(118,194,43)"/>
   <stop offset="97.826%" style="stop-color:rgb(179,255,171)"/>
  </linearGradient>
  <path fill="url(#_lgradient_5)" d="M 165.688919 11.95 C 239.744626 11.95 250.328309 22.507198 250.328309 96.493859 L 250.328309 155.744653 C 250.328309 229.73091 239.744626 240.288396 165.688919 240.288396 L 90.319393 240.288396 C 16.26369 240.288396 5.68 229.73091 5.68 155.744653 L 5.68 96.493859 C 5.68 22.507198 16.26369 11.95 90.319393 11.95 L 165.688919 11.95 Z"/>
 </g>
 <path fill="#FFFFFF" fill-rule="evenodd" d="M 165.688919 11.95 C 239.744629 11.95 250.328308 22.507198 250.328308 96.493858 L 250.328308 155.744659 C 250.328308 229.730911 239.744629 240.288391 165.688919 240.288391 L 90.319397 240.288391 C 16.263689 240.288391 5.68 229.730911 5.68 155.744659 L 5.68 96.493858 C 5.68 22.507198 16.263689 11.95 90.319397 11.95 L 165.688919 11.95 Z M 165.699997 19.950001 C 170.020004 19.950001 174.350006 19.99 178.669998 20.08 C 182.490005 20.17 186.320007 20.32 190.130005 20.540001 C 193.470001 20.719999 196.809998 21 200.130005 21.360001 C 203 21.68 205.860001 22.1 208.699997 22.620001 C 211.119995 23.07 213.520004 23.639999 215.880005 24.33 C 217.880005 24.92 219.839996 25.639999 221.740005 26.49 C 223.360001 27.219999 224.929993 28.09 226.410004 29.08 C 227.740005 29.98 228.990005 31 230.130005 32.139999 C 231.259995 33.279999 232.289993 34.52 233.190002 35.849998 C 234.179993 37.330002 235.050003 38.889999 235.779999 40.509998 C 236.630005 42.41 237.350006 44.360001 237.940002 46.360001 C 238.630005 48.720001 239.199997 51.110001 239.649994 53.529999 C 240.179993 56.360001 240.600006 59.220001 240.910004 62.09 C 241.279999 65.410004 241.550003 68.739998 241.740005 72.07 C 241.960007 75.889999 242.110001 79.709999 242.190002 83.529999 C 242.289993 87.839996 242.330002 92.160004 242.330002 96.480003 C 242.330002 96.489998 242.330002 96.489998 242.330002 96.489998 L 242.330002 155.740005 C 242.330002 155.75 242.330002 155.75 242.330002 155.75 C 242.330002 160.070007 242.289993 164.389999 242.190002 168.710007 C 242.110001 172.529999 241.960007 176.350006 241.740005 180.160004 C 241.550003 183.5 241.279999 186.830002 240.910004 190.149994 C 240.600006 193.020004 240.179993 195.869995 239.649994 198.710007 C 239.199997 201.130005 238.630005 203.520004 237.940002 205.880005 C 237.350006 207.880005 236.630005 209.830002 235.779999 211.729996 C 235.050003 213.350006 234.179993 214.910004 233.190002 216.389999 C 232.289993 217.720001 231.259995 218.960007 230.130005 220.100006 C 228.990005 221.240005 227.740005 222.259995 226.410004 223.160004 C 224.929993 224.149994 223.360001 225.020004 221.740005 225.75 C 219.839996 226.600006 217.880005 227.320007 215.880005 227.910004 C 213.520004 228.600006 211.119995 229.169998 208.699997 229.619995 C 205.860001 230.139999 203 230.559998 200.130005 230.869995 C 196.809998 231.240005 193.470001 231.509995 190.130005 231.699997 C 186.320007 231.919998 182.490005 232.070007 178.669998 232.149994 C 174.350006 232.25 170.020004 232.289993 165.699997 232.289993 C 165.690002 232.289993 165.690002 232.289993 165.690002 232.289993 L 90.32 232.289993 C 90.32 232.289993 90.309998 232.289993 90.309998 232.289993 C 85.989998 232.289993 81.660004 232.25 77.339996 232.149994 C 73.510002 232.070007 69.690002 231.919998 65.870003 231.699997 C 62.540001 231.509995 59.200001 231.240005 55.880001 230.869995 C 53 230.559998 50.150002 230.139999 47.310001 229.619995 C 44.880001 229.169998 42.490002 228.600006 40.119999 227.910004 C 38.130001 227.320007 36.169998 226.600006 34.27 225.75 C 32.639999 225.020004 31.08 224.149994 29.6 223.160004 C 28.27 222.259995 27.02 221.240005 25.879999 220.100006 C 24.75 218.960007 23.719999 217.720001 22.82 216.389999 C 21.83 214.910004 20.959999 213.350006 20.23 211.729996 C 19.379999 209.830002 18.66 207.880005 18.07 205.880005 C 17.379999 203.520004 16.799999 201.130005 16.360001 198.710007 C 15.83 195.869995 15.41 193.020004 15.1 190.149994 C 14.73 186.830002 14.46 183.5 14.27 180.160004 C 14.05 176.350006 13.9 172.529999 13.82 168.710007 C 13.72 164.389999 13.68 160.070007 13.68 155.75 C 13.68 155.75 13.68 155.75 13.68 155.740005 L 13.68 96.489998 C 13.68 96.489998 13.68 96.489998 13.68 96.480003 C 13.68 92.160004 13.72 87.839996 13.82 83.529999 C 13.9 79.709999 14.05 75.889999 14.27 72.07 C 14.46 68.739998 14.73 65.410004 15.1 62.09 C 15.41 59.220001 15.83 56.360001 16.360001 53.529999 C 16.799999 51.110001 17.379999 48.720001 18.07 46.360001 C 18.66 44.360001 19.379999 42.41 20.23 40.509998 C 20.959999 38.889999 21.83 37.330002 22.82 35.849998 C 23.719999 34.52 24.75 33.279999 25.879999 32.139999 C 27.02 31 28.27 29.98 29.6 29.08 C 31.08 28.09 32.639999 27.219999 34.27 26.49 C 36.169998 25.639999 38.130001 24.92 40.119999 24.33 C 42.490002 23.639999 44.880001 23.07 47.310001 22.620001 C 50.150002 22.1 53 21.68 55.880001 21.360001 C 59.200001 21 62.540001 20.719999 65.870003 20.540001 C 69.690002 20.32 73.510002 20.17 77.339996 20.08 C 81.660004 19.99 85.989998 19.950001 90.309998 19.950001 C 90.309998 19.950001 90.32 19.950001 90.32 19.950001 L 165.690002 19.950001 C 165.690002 19.950001 165.690002 19.950001 165.699997 19.950001 Z"/>
 <g opacity=".1">
  <path fill="#FFFFFF" d="M 6.357415 83.579714 L 211.766022 236.610322 C 200.204289 238.92143 185.339539 239.628592 166.242886 239.628592 L 90.873361 239.628592 C 16.817653 239.628592 6.23397 229.071106 6.23397 155.084848 L 6.23397 95.834054 C 6.23397 91.531105 6.275464 87.463972 6.357415 83.579714 L 6.357415 83.579714 Z"/>
 </g>
 <g opacity=".4">
  <linearGradient id="_lgradient_6" x1=".517" x2=".517" y1="0" y2="1">
   <stop offset="0%" style="stop-color:rgb(255,255,255)"/>
   <stop offset="12.5%" stop-opacity=".098" style="stop-color:rgb(255,255,255)"/>
   <stop offset="92.5%" stop-opacity=".098" style="stop-color:rgb(0,0,0)"/>
   <stop offset="100%" stop-opacity=".498" style="stop-color:rgb(0,0,0)"/>
  </linearGradient>
  <path fill="none" stroke="url(#_lgradient_6)" stroke-linecap="round" stroke-linejoin="round" stroke-width="4.077" d="M 165.68477 11.946993 C 239.740477 11.946993 250.324166 22.504193 250.324166 96.490823 L 250.324166 155.741586 C 250.324166 229.727914 239.740477 240.285417 165.68477 240.285417 L 90.315251 240.285417 C 16.259544 240.285417 5.675855 229.727914 5.675855 155.741586 L 5.675855 96.490823 C 5.675855 22.504193 16.259544 11.946993 90.315251 11.946993 L 165.68477 11.946993 Z" vector-effect="non-scaling-stroke"/>
 </g>
 <g filter="url(#IoeNIqSn1uX414bjOmjAbogXfJ7G76EI)">
  <circle fill="#37474F" cx="155.188" cy="100.812" r="18.125" vector-effect="non-scaling-stroke"/>
  <circle fill="#37474F" cx="100.813" cy="100.812" r="18.125" vector-effect="non-scaling-stroke"/>
  <path fill="#37474F" d="M 196.572917 128 L 150.354167 137.0625 L 105.947917 137.0625 L 59.729167 128 L 72.71875 104.135417 C 76.041667 98.395833 82.083333 94.770833 88.729167 94.770833 L 167.875 94.770833 C 174.520833 94.770833 180.5625 98.395833 183.885417 104.135417 L 196.572917 128 Z"/>
  <circle fill="#37474F" cx="170.292" cy="143.104" r="30.208" vector-effect="non-scaling-stroke"/>
  <circle fill="#37474F" cx="85.708" cy="143.104" r="30.208" vector-effect="non-scaling-stroke"/>
  <circle fill="#37474F" cx="128" cy="137.062" r="15.104" vector-effect="non-scaling-stroke"/>
  <circle fill="#546E7A" cx="128" cy="137.062" r="6.042" vector-effect="non-scaling-stroke"/>
  <circle fill="#46A926" cx="170.292" cy="143.104" r="21.146" vector-effect="non-scaling-stroke"/>
  <circle fill="#46A926" cx="85.708" cy="143.104" r="21.146" vector-effect="non-scaling-stroke"/>
  <path fill="#CBE667" d="M 181.46875 136.15625 C 178.447917 132.833333 174.520833 131.020833 170.291667 131.020833 C 166.0625 131.020833 161.833333 132.833333 159.114583 136.15625 C 157.90625 137.364583 158.208333 139.177083 159.416667 140.385417 C 160.625 141.59375 162.4375 141.291667 163.645833 140.083333 C 167.270833 136.15625 173.614583 136.15625 177.239583 140.083333 C 177.84375 140.6875 178.75 140.989583 179.354167 140.989583 C 179.958333 140.989583 180.864583 140.6875 181.46875 140.083333 C 182.677083 139.177083 182.677083 137.364583 181.46875 136.15625 Z M 85.708333 131.020833 C 81.479167 131.020833 77.25 132.833333 74.53125 136.15625 C 73.322917 137.364583 73.625 139.177083 74.833333 140.385417 C 76.041667 141.59375 77.854167 141.291667 79.0625 140.083333 C 82.6875 136.15625 89.03125 136.15625 92.65625 140.083333 C 93.260417 140.6875 94.166667 140.989583 94.770833 140.989583 C 95.375 140.989583 96.28125 140.6875 96.885417 140.083333 C 98.09375 138.875 98.09375 137.0625 97.1875 135.854167 C 94.166667 132.833333 89.9375 131.020833 85.708333 131.020833 Z"/>
 </g>
 <defs>
  <filter id="IoeNIqSn1uX414bjOmjAbogXfJ7G76EI" width="400%" height="400%" x="-200%" y="-200%" color-interpolation-filters="sRGB" filterUnits="objectBoundingBox">
   <feGaussianBlur xmlns="http://www.w3.org/2000/svg" in="SourceGraphic" stdDeviation="4.294"/>
   <feOffset xmlns="http://www.w3.org/2000/svg" dx="0" dy="4" result="pf_100_offsetBlur"/>
   <feFlood xmlns="http://www.w3.org/2000/svg" flood-opacity=".4"/>
   <feComposite xmlns="http://www.w3.org/2000/svg" in2="pf_100_offsetBlur" operator="in" result="pf_100_dropShadow"/>
   <feBlend xmlns="http://www.w3.org/2000/svg" in="SourceGraphic" in2="pf_100_dropShadow" mode="normal"/>
  </filter>
 </defs>
</svg>

<svg xmlns="http://www.w3.org/2000/svg" style="isolation:isolate" width="256" height="256"><defs><filter id="a" width="400%" height="400%" x="-200%" y="-200%" color-interpolation-filters="sRGB" filterUnits="objectBoundingBox"><feGaussianBlur xmlns="http://www.w3.org/2000/svg" in="SourceGraphic" stdDeviation="4.294"/><feOffset xmlns="http://www.w3.org/2000/svg" dy="4" result="pf_100_offsetBlur"/><feFlood xmlns="http://www.w3.org/2000/svg" flood-opacity=".4"/><feComposite xmlns="http://www.w3.org/2000/svg" in2="pf_100_offsetBlur" operator="in" result="pf_100_dropShadow"/><feBlend xmlns="http://www.w3.org/2000/svg" in="SourceGraphic" in2="pf_100_dropShadow"/></filter></defs><g filter="url(#a)"><linearGradient id="b" x1=".25" x2=".75" y1=".036" y2=".902" gradientTransform="matrix(244.6483 0 0 228.3384 5.68 11.95)" gradientUnits="userSpaceOnUse"><stop offset="1.304%" stop-color="#12fff7"/><stop offset="48.272%" stop-color="#76c22b"/><stop offset="97.826%" stop-color="#b3ffab"/></linearGradient><path fill="url(#b)" d="M165.689 11.95c74.056 0 84.64 10.557 84.64 84.544v59.25c0 73.987-10.584 84.544-84.64 84.544h-75.37c-74.055 0-84.639-10.557-84.639-84.543V96.494c0-73.987 10.584-84.544 84.64-84.544h75.369z"/></g><path fill="#FFF" fill-rule="evenodd" d="M165.689 11.95c74.056 0 84.64 10.557 84.64 84.544v59.25c0 73.987-10.584 84.544-84.64 84.544h-75.37c-74.055 0-84.639-10.557-84.639-84.543V96.494c0-73.987 10.584-84.544 84.64-84.544h75.369zm.011 8c4.32 0 8.65.04 12.97.13 3.82.09 7.65.24 11.46.46 3.34.18 6.68.46 10 .82 2.87.32 5.73.74 8.57 1.26 2.42.45 4.82 1.02 7.18 1.71 2 .59 3.96 1.31 5.86 2.16 1.62.73 3.19 1.6 4.67 2.59 1.33.9 2.58 1.92 3.72 3.06 1.13 1.14 2.16 2.38 3.06 3.71.99 1.48 1.86 3.04 2.59 4.66.85 1.9 1.57 3.85 2.16 5.85.69 2.36 1.26 4.75 1.71 7.17.53 2.83.95 5.69 1.26 8.56.37 3.32.64 6.65.83 9.98.22 3.82.37 7.64.45 11.46.1 4.31.14 8.63.14 12.95V155.75c0 4.32-.04 8.64-.14 12.96-.08 3.82-.23 7.64-.45 11.45-.19 3.34-.46 6.67-.83 9.99-.31 2.87-.73 5.72-1.26 8.56-.45 2.42-1.02 4.81-1.71 7.17-.59 2-1.31 3.95-2.16 5.85-.73 1.62-1.6 3.18-2.59 4.66-.9 1.33-1.93 2.57-3.06 3.71a25.328 25.328 0 0 1-3.72 3.06 32.25 32.25 0 0 1-4.67 2.59c-1.9.85-3.86 1.57-5.86 2.16-2.36.69-4.76 1.26-7.18 1.71-2.84.52-5.7.94-8.57 1.25-3.32.37-6.66.64-10 .83-3.81.22-7.64.37-11.46.45-4.32.1-8.65.14-12.97.14H90.32h-.01c-4.32 0-8.65-.04-12.97-.14-3.83-.08-7.65-.23-11.47-.45a185.9 185.9 0 0 1-9.99-.83c-2.88-.31-5.73-.73-8.57-1.25-2.43-.45-4.82-1.02-7.19-1.71-1.99-.59-3.95-1.31-5.85-2.16a31.73 31.73 0 0 1-4.67-2.59c-1.33-.9-2.58-1.92-3.72-3.06a25.897 25.897 0 0 1-3.06-3.71c-.99-1.48-1.86-3.04-2.59-4.66a46.59 46.59 0 0 1-2.16-5.85c-.69-2.36-1.27-4.75-1.71-7.17-.53-2.84-.95-5.69-1.26-8.56-.37-3.32-.64-6.65-.83-9.99-.22-3.81-.37-7.63-.45-11.45-.1-4.32-.14-8.64-.14-12.96V96.49v-.01c0-4.32.04-8.64.14-12.95.08-3.82.23-7.64.45-11.46.19-3.33.46-6.66.83-9.98.31-2.87.73-5.73 1.26-8.56.44-2.42 1.02-4.81 1.71-7.17.59-2 1.31-3.95 2.16-5.85.73-1.62 1.6-3.18 2.59-4.66.9-1.33 1.93-2.57 3.06-3.71 1.14-1.14 2.39-2.16 3.72-3.06 1.48-.99 3.04-1.86 4.67-2.59 1.9-.85 3.86-1.57 5.85-2.16 2.37-.69 4.76-1.26 7.19-1.71 2.84-.52 5.69-.94 8.57-1.26 3.32-.36 6.66-.64 9.99-.82 3.82-.22 7.64-.37 11.47-.46 4.32-.09 8.65-.13 12.97-.13H165.7z"/><path fill="#FFF" d="M6.357 83.58l205.409 153.03c-11.562 2.311-26.426 3.019-45.523 3.019h-75.37c-74.055 0-84.639-10.558-84.639-84.544v-59.25c0-4.304.041-8.371.123-12.255z" opacity=".1"/><g opacity=".4"><linearGradient id="c" x1=".517" x2=".517" y2="1"><stop offset="0%" stop-color="#fff"/><stop offset="12.5%" stop-opacity=".098" stop-color="#fff"/><stop offset="92.5%" stop-opacity=".098"/><stop offset="100%" stop-opacity=".498"/></linearGradient><path fill="none" stroke="url(#c)" stroke-linecap="round" stroke-linejoin="round" stroke-width="4.077" d="M165.685 11.947c74.055 0 84.64 10.557 84.64 84.544v59.25c0 73.987-10.585 84.544-84.64 84.544h-75.37c-74.055 0-84.64-10.557-84.64-84.543V96.49c0-73.987 10.585-84.544 84.64-84.544h75.37z" vector-effect="non-scaling-stroke"/></g><g filter="url(#IoeNIqSn1uX414bjOmjAbogXfJ7G76EI)"><circle fill="#37474F" cx="155.188" cy="100.812" r="18.125" vector-effect="non-scaling-stroke"/><circle fill="#37474F" cx="100.813" cy="100.812" r="18.125" vector-effect="non-scaling-stroke"/><path fill="#37474F" d="M196.573 128l-46.219 9.063h-44.406L59.729 128l12.99-23.865c3.323-5.74 9.364-9.364 16.01-9.364h79.146c6.646 0 12.688 3.625 16.01 9.364L196.573 128z"/><circle fill="#37474F" cx="170.292" cy="143.104" r="30.208" vector-effect="non-scaling-stroke"/><circle fill="#37474F" cx="85.708" cy="143.104" r="30.208" vector-effect="non-scaling-stroke"/><circle fill="#37474F" cx="128" cy="137.062" r="15.104" vector-effect="non-scaling-stroke"/><circle fill="#546E7A" cx="128" cy="137.062" r="6.042" vector-effect="non-scaling-stroke"/><circle fill="#46A926" cx="170.292" cy="143.104" r="21.146" vector-effect="non-scaling-stroke"/><circle fill="#46A926" cx="85.708" cy="143.104" r="21.146" vector-effect="non-scaling-stroke"/><path fill="#CBE667" d="M181.469 136.156c-3.021-3.323-6.948-5.135-11.177-5.135-4.23 0-8.459 1.812-11.177 5.135-1.209 1.209-.907 3.021.302 4.23 1.208 1.208 3.02.906 4.229-.303 3.625-3.927 9.969-3.927 13.594 0 .604.605 1.51.907 2.114.907.604 0 1.51-.303 2.115-.907 1.208-.906 1.208-2.718 0-3.927zm-95.76-5.135c-4.23 0-8.459 1.812-11.178 5.135-1.208 1.209-.906 3.021.302 4.23 1.209 1.208 3.021.906 4.23-.303 3.624-3.927 9.968-3.927 13.593 0 .604.605 1.51.907 2.115.907.604 0 1.51-.303 2.114-.907 1.209-1.208 1.209-3.02.302-4.229-3.02-3.02-7.25-4.833-11.479-4.833z"/></g><defs><filter id="IoeNIqSn1uX414bjOmjAbogXfJ7G76EI" width="400%" height="400%" x="-200%" y="-200%" color-interpolation-filters="sRGB" filterUnits="objectBoundingBox"><feGaussianBlur xmlns="http://www.w3.org/2000/svg" in="SourceGraphic" stdDeviation="4.294"/><feOffset xmlns="http://www.w3.org/2000/svg" dy="4" result="pf_100_offsetBlur"/><feFlood xmlns="http://www.w3.org/2000/svg" flood-opacity=".4"/><feComposite xmlns="http://www.w3.org/2000/svg" in2="pf_100_offsetBlur" operator="in" result="pf_100_dropShadow"/><feBlend xmlns="http://www.w3.org/2000/svg" in="SourceGraphic" in2="pf_100_dropShadow"/></filter></defs></svg>
